svg/alphabetical_sorting.svg

<svg xmlns="http://www.w3.org/2000/svg" viewBox="0 0 32 32" enable-background="new 0 0 32 32"><path d="M 8.1875 5 L 7.96875 5.65625 L 6.03125 11 L 6 11 L 6 11.0625 L 5.0625 13.65625 L 5 13.8125 L 5 14 L 5 15 L 7 15 L 7 14.15625 L 7.40625 13 L 10.59375 13 L 11 14.15625 L 11 15 L 13 15 L 13 14 L 13 13.8125 L 12.9375 13.65625 L 12 11.0625 L 12 11 L 11.96875 11 L 10.03125 5.65625 L 9.8125 5 L 9.09375 5 L 8.90625 5 L 8.1875 5 z M 22 5 L 22 23.6875 L 19.40625 21.09375 L 18 22.5 L 22.28125 26.8125 L 23 27.5 L 23.71875 26.8125 L 28 22.5 L 26.59375 21.09375 L 24 23.6875 L 24 5 L 22 5 z M 9 8.65625 L 9.84375 11 L 8.15625 11 L 9 8.65625 z M 5 17 L 5 19 L 10.5625 19 L 5.28125 24.28125 L 5 24.59375 L 5 25 L 5 26 L 5 27 L 6 27 L 13 27 L 13 25 L 7.4375 25 L 12.71875 19.71875 L 13 19.40625 L 13 19 L 13 18 L 13 17 L 12 17 L 5 17 z" color="#000" overflow="visible" enable-background="accumulate"/></svg>

<svg xmlns="http://www.w3.org/2000/svg" viewBox="0 0 32 32"><path style="text-indent:0;text-align:start;line-height:normal;text-transform:none;block-progression:tb;-inkscape-font-specification:Bitstream Vera Sans" d="M8.188 5l-.22.656L6.032 11H6v.063l-.938 2.593-.062.156V15h2v-.844L7.406 13h3.188L11 14.156V15h2v-1.188l-.063-.156L12 11.062V11h-.03l-1.94-5.344L9.814 5H8.185zM22 5v18.688l-2.594-2.594L18 22.5l4.28 4.313.72.687.72-.688L28 22.5l-1.406-1.406L24 23.687V5h-2zM9 8.656L9.844 11H8.156L9 8.656zM5 17v2h5.563L5.28 24.28l-.28.314V27h8v-2H7.437l5.282-5.28.28-.314V17H5z" color="#000" overflow="visible" font-family="Bitstream Vera Sans"/></svg>
